X: 1660
T: Sana Ben Arz-ı Muhabbet...
C: Kanunî Garbis Efendi
O: Turkey
F: http://compmusic.upf.edu/node/140
N: suzidil--sarki--aksak--sana_ben_arz-i--garbis_efendi
N: makam= suzidil
N: form= sarki
N: usul= aksak = 9/8
M: 9/8
L: 1/16
K: C ^1/4f ^g ^d 
Q: 1/4=120
%%MIDI tuningsystem comma53
e3/2d/e=f efed cdcB cBAG A2 | Bc ABcd Bcde cde4z2  | 
w:  ARANAĞME  |   | 
e3/2d/e=f efed cdcB BcBA G3/2=F/ | \
w:   | 
E=F GAB2 AGGF FEE3dcB  | 
w:   | 
e3/2d/e=f efed cdcB cBAG A2 | Bc ABcd Bcde cde4z2  | 
w:  ARANAĞME  |   | 
e3/2d/e=f efed cdcB BcBA G3/2=F/ | \
w:   | 
E=F GAB2 AGGF FEE3dcB  | 
w:   | 
A4 d2e2 e4 =fedf ed | c3Bc2 d2e2 d=fe4ed  | \
w:  *  Sa na  ben  arz_  |  *  *  ı  mu hab *  *  bet   | 
.e4 d2e2 =f2e2 b2a2 ag | 
w:  *  e di yor *  ken   | 
g3=fgf fee4ef edcB  | A4 d2e2 e4 =fedf ed | 
w:  *  *  gü *  ze *  lim   SAZ  |  *  Sa na  ben  arz_  | 
c3Bc2 d2e2 d=fe4ed  | .e4 d2e2 =f2e2 b2a2 ag | \
w:  *  *  ı  mu hab *  *  bet   |  *  e di yor *  ken   | 
g3=fgf fee4ef edcd  | 
w:  *  *  gü *  ze *  lim   SAZ  | 
e4 =d2e2 e4 =fedf ed | c3=gg=f fee=d dccB A2GA  | 
w:  *  Yal *  nız  aş  |  *  *  kı *  mı  *  i *  *  *  lân   | 
.B4 G2A2 G=FFE E4 e2 | dc BAG=F FEE4e=f edcd  | 
w:  *  i di  kas *  *  *  tım   |  *  *  *  *  e *  me *  lim   SAZ  | 
e4 =d2e2 e4 =fedf ed | c3=gg=f fee=d dccB A2GA  | 
w:  *  Yal *  nız  aş  |  *  *  kı *  mı  *  i *  *  *  lân   | 
.B4 G2A2 G=FFE E4 e2 | dc BAG=F FEE4a4ag  | 
w:  *  i di  kas *  *  *  tım   |  *  *  *  *  e *  me *  lim   SAZ  | 
a4 g2a2 a4 c'bag =fe | e3=d^f2 edd^3/4c cBBc d2cB  | 
w:  *  Yal *  nız  mer  |  *  *  ha met  *  in *  *  *  saf   | 
.B4 ^3/4c2=d2 e2f2 g2a2 b2 | g3=fgf fee4a4ag  | \
w:  *  i di  hep  *  is  |  *  *  te *  di *  ğim   SAZ  | 
a4 g2a2 a4 c'bag =fe | 
w:  *  Yal *  nız  mer  | 
e3=d^f2 edd^3/4c cBBc d2cB  | .B4 ^3/4c2=d2 e2f2 g2a2 b2 | 
w:  *  *  ha met  *  in *  *  *  saf   |  *  i di  hep  *  is  | 
g3=fgf fee4ef edcd  | e4 =d2e2 e4 =fedf ed | 
w:  *  *  te *  di *  ğim   SAZ  |  *  Se ni  sev mek   | 
c3=gg=f fee=d dccB A2GA  | .B4 G2A2 G=FFE E4 e2 | 
w:  *  *  de  *  ka *  ba *  *  *  hat   |  *  i se  söy *  *  *  le   | 
dc BAG=F FEE4e=f edcd  | e4 =d2e2 e4 =fedf ed | 
w:  *  *  *  *  bi *  le *  yim   SAZ  |  *  Se ni  sev mek   | 
c3=gg=f fee=d dccB A2GA  | .B4 G2A2 G=FFE E4 e2 | 
w:  *  *  de  *  ka *  ba *  *  *  hat   |  *  i se  söy *  *  *  le   | 
dc BAG=F FEE3cBA GFE2  | z20  | z4E2A4A2G2A6 | 
w:  *  *  *  *  bi *  le *  yim   SAZ  |  |  Bi le yim  *  cür  | 
B6c2B2A2G2A6  | .B6c4d4e4g2 | =f6f2e2e2d2c2B2A2  | \
w:  mü mü  *  ik *  râr_  |  ı  ku sur  ey  |  le ye *  yim    | 
z4E2A4A2G2A6 | 
w:  Bi le yim  *  cür  | 
B6c2B2A2G2A6  | .B6c4d4e4g2 | g4=f2f2e2e2d2e4z2  | \
w:  mü mü  *  ik *  râr_  |  ı  ku sur  ey  |  le *  ye *  yim    | 
e4=f2e2d2c2d2e6 | 
w:  SAZ  | 
a6a4a4a2g2=f2  | e4=d2d2^2/4c2c2B2B6 | \
w:  Aş kı mı  ken  |  di  *  e *  lim *  le   | 
z4^3/4c2=d4e4=f4a2  | g4=f2f2e2e2d2e6 | 
w:  sa na  kur ban   |  e *  de *  yim    | 
z4=f2e2d2c2d2e6  | z18  | e4 z=d2e e4 =fedf ed | \
w:  SAZ  |  |  Ah  aş kı mı  ken  | 
c3=gg=f fee=d dccB A2GA  | 
w:  *  *  di  *  e *  lim *  *  *  le   | 
.B4 G2A2 G=FFE E4 e2 | dc BAG=F FEE4e=f edcd  | 
w:  *  sa na  kur *  *  *  ban   |  *  *  *  *  e *  de *  yim   SAZ  | 
e4 z=d2e e4 =fedf ed | c3=gg=f fee=d dccB A2GA  | 
w:  Ah  aş kı mı  ken  |  *  *  di  *  e *  lim *  *  *  le   | 
.B4 G2A2 G=FFE E4 e2 | dc BAG=F FEE3cBA GFE2  | 
w:  *  sa na  kur *  *  *  ban   |  *  *  *  *  e *  de *  yim   SAZ  | 
|


